!!!Rep 4048
!!!Isim(Name): Bülbül Güle Kon Dikene Konma 
!!!Yore(Region): Şanlıurfa
!!!Makam: Rast
!!!Donanim(Key Signature): b-2 f#
!!!Usul: 2/4 X/X
**kern	**Dcent
*staff1	*.
=1-	=1-
*clefG2	*.
*k[b-f#]	*.
*M2/4	*.
8r	.
16ff#	0
16gg	0
8gg	0
8gg	0
=2	=2
32ff#	0
32ee	0
16ff#	0
8gg	0
16ffn	0
16ee	0
8dd	0
=3	=3
8aa	0
16aa	0
16ff#	0
16gg	0
8ee	0
16dd	0
=4	=4
16r	.
8ee	0
16dd	0
32dd	0
32gg	0
32ff#	0
32gg	0
16ee	0
16dd	0
=5	=5
!!linebreak:default
16.dd	0
32cc	0
16dd	0
16ee	0
8dd	0
8cc	0
=6	=6
16.dd	0
32ee	0
32dd	0
32ee	0
16cc	0
16ee	0
16dd	0
16cc	0
16b-	50
=7	=7
16.cc	0
32b-	50
16cc	0
16dd	0
8cc	0
8b-	50
=8	=8
16.cc	0
32dd	0
32cc	0
32dd	0
16b-	50
16dd	0
16cc	0
16b-	50
16a	0
=9	=9
!!linebreak:default
16.b-	50
32a	0
16b-	50
16cc	0
16b-	50
16a	0
8g	0
=10	=10
16a	0
8a	0
16cc	0
16b-	50
16a	0
16g	0
16f#	0
=11	=11
8.g	0
16g	0
16g	0
16g	0
8g	0
=12	=12
!!linebreak:default
*MX/X	*
ff#Q	50
8ggQ	0
8ggQ	0
8.ggQ	0
8rQ	.
ff#Q	50
16ggQ	0
16ggQ	0
8.ggQ	0
ff#Q	50
16ggQ	0
16ggQ	0
16ggQ	0
8ggQ	0
16.ggQ	0
32aaQ	0
16.ff#Q	50
32aaQ	0
4ggQ;	0
8rQ	.
16ff#Q	50
16ggQ	0
4aaQ;	0
64dddQ	0
32.cccQ	0
64dddQ	0
32.bb-Q	50
!!linebreak:default
64cccQ	0
32.aaaQ	0
64bb-Q	50
32.ggQ	0
64aaaQ	0
32.ff#Q	50
32ggQ	0
8..eeQ	0
32ggQ	0
32ff#Q	50
16ggQ	0
ff#Q	50
8ggQ	0
16ggQ	0
16ggQ	0
8ggQ	0
8ggQ	0
16ggQ	0
16ggQ	0
16ggQ	0
16..ff#Q	50
32ggQ	0
!!linebreak:default
4.eeQ	0
64aaQ	0
32.ggQ	0
64aaQ	0
32.ff#Q	50
64ggQ	0
32.eeQ	0
32ff#Q	50
4ddQ;	0
8rQ	.
16ff#Q	50
16ggQ	0
4aaQ;	0
64dddQ	0
32.cccQ	0
64dddQ	0
32.bb-Q	50
64cccQ	0
32.aaQ	0
64bb-Q	50
32.ggQ	0
64aaQ	0
32.ff#Q	50
!!linebreak:default
32ggQ	0
8..eeQ	0
32ggQ	0
32ff#Q	50
16ggQ	0
ff#Q	50
16ggQ	0
16ggQ	0
8ggQ	0
ff#Q	50
8ggQ	0
8ggQ	0
16ggQ	0
8ggQ	0
8ggQ	0
16.ggQ	0
32aaQ	0
16.ff#Q	50
32aaQ	0
4ggQ;	0
=||13	=||13
!!linebreak:default
=14-	=14-
*M2/4	*
8r	.
16ff#	0
16gg	0
8gg	0
8gg	0
=15	=15
32ff#	0
32ee	0
16ff#	0
8gg	0
16ffn	0
16ee	0
8dd	0
=16	=16
8aa	0
16aa	0
16ff#	0
16gg	0
8ee	0
16dd	0
=17	=17
16r	.
8ee	0
16dd	0
32dd	0
32gg	0
32ff#	0
32gg	0
16ee	0
16dd	0
=18	=18
!!linebreak:default
16.dd	0
32cc	0
16dd	0
16ee	0
8dd	0
8cc	0
=19	=19
16.dd	0
32ee	0
32dd	0
32ee	0
16cc	0
16ee	0
16dd	0
16cc	0
16b-	50
=20	=20
16.cc	0
32b-	50
16cc	0
16dd	0
8cc	0
8b-	50
=21	=21
16.cc	0
32dd	0
32cc	0
32dd	0
16b-	50
16dd	0
16cc	0
16b-	50
16a	0
=22	=22
!!pagebreak:default
16.b-	50
32a	0
16b-	50
16cc	0
16b-	50
16a	0
8g	0
=23	=23
16a	0
8a	0
16cc	0
16b-	50
16a	0
16g	0
16f	0
=24	=24
8.g	0
16g	0
16g	0
16g	0
8g	0
=25	=25
*-	*-
!! Uzun Hava Database
!! 
!! Sertan Şentürk, Parag Chordia & Erdal Tuğcular
!! Georgia Tech Center for Music Technology, 2011